!!!OTL: George Jones
!!!ONM: 110.
**kern
*clefG2
*k[f#]
*G:
*M6/8
*MM80
{8d
=1
4g
8B
4B
8d
=2
8e
4d
4B
8G
=3
4B
8A
4G
8F#
=4
4.G
4r}
{8d
=5
4B
8d
4g
8a
=6
4.b
4b
8g
=7
4g
8g
4g
8e
=8
4.d
4r}
{8d
=9
4B
8d
4g
8a
=10
8b
[4b
8b]
8r
16g
16g
=11
4g
8g
4g
8e
=12
4.d
4r}
{16d
16d
=13
8d
4e
4d
8B
=14
8g
4d
4G
8G
=15
4A
8B
4G
8F#
=16
4.G
8r
8r}
==
*-
!!!CNT: Folksongs of Maritime Canada
!!!MRD: 1928///-1932///
!!!OCL: Helen Creighton
!!!YOR: Songs and Ballads from Nova Scotia
!!!PPR: J.M. Dent & Sons, Limited
!!!PPP: Toronto, Canada
!!!PDT: 1932///
!!!reprint: Dover Publications, 1992: ISBN 0-486-21703-5
!!!ENC1: Craig Stuart Sapp (music and bibliographic data)                       
!!!ENC2: Marcus Pearce (phrase markings and key designations)                   
!!!ENC3: Darrell Conklin (phrase markings and key designations)   
!!!END: 2002/04/10/
!!!EEV: 2004/06/05
!!!MPN: Mr. Ben Henneberry
!!!PPG: 238
!!!EFL: 111/152
!!!ARE: Canada; Nova Scotia
!!!verses: 19
!!!VTS: 4259730255
